X: 5759
T: Cahiramee
R: slip jig
M: 9/8
K: Gmajor
|D2G G2A B3|A3 A2B c3|BcB B2A G3|ABA A2G F2 D|
D2G G2A B3|A3 A2B c3|ded d2c B2G|ABA A2G F2G||
B2d d2B d3|e2e e2f g3|d2d d2c B2G|ABA A2G F2D|
B2d d2B d3|e2e e2f g3|ded d2c B2G|ABA A2G F2G||

